X:1
T:Faith and Works
T:Faith and Works
T:Solomon W. Straub
T:Caroline Augusta White Soule, 1880
T:Public Domain Courtesy of the Cyber Hymnal™
C:Solomon W. Straub
Z:Public Domain
Z:Courtesy of the Cyber Hymnal™
%%score ( 1 2 ) ( 3 4 )
L:1/8
Q:1/4=85
M:2/4
K:F
V:1 treble 
V:2 treble 
V:3 bass 
V:4 bass 
V:1
 C[CA] [CF]2 | C[CA] [CF][Cc] | [Fc][Fc] [Fc][FA] | [EG]3 z | [FA][Ac] [Ac][GB] | %5
w: 1.~Go thy way|day by day The|way Heav’n points to|thee;|Ques- tion ne- ver,|
w: 2.~Do thy task—|ne- ver as- k|Why must it be|done?|Ne- ver bor- row|
w: 3.~Then shalt thou,|ev- en no- w,|Live in God and|light;|And when dy- ing|
w: 4.~For thou know’st|as thou sow- est,|So shalt thou e’er|reap;|Du- ty done, is|
 [EG][GB] [GB][FA] | D[DG] [CF][CE] | [CF]3 z ||"^Refrain" cc c2 | c4 | [Gc][Gc] [Ec][Fc] | %11
w: trust- ing ev- er—|Peace then shalt thou|see.||||
w: from the mor- row—|Use the pre- sent|sun.|Live a- right,|day|and night, Lov- ing|
w: dread not ly- ing|In the cold and|night.||||
w: vic- t’ry won and|Sweet the vic- tor’s|sleep.||||
 [Gc]2 !fermata![Gc]2 | [FA][Ac] [Ac][GB] | [EG][GB] [GB][FA] | D[DG] [CF][CE] | [CF]2 [CF]2 |] %16
w: |||||
w: God for-|ev- er; Bear- ing|cross- es, heav- y|loss- es, Mur- mur-|ing— Oh,|
w: |||||
w: |||||
V:2
 C x3 | C x3 | x4 | x4 | x4 | x4 | D x3 | x4 || x4 | EE E2 | x4 | x4 | x4 | x4 | D x3 | x4 |] %16
V:3
 [F,A,]F, [F,A,]2 | [F,A,]F, [F,A,][F,A,] | [F,A,][F,A,] [F,A,][F,C] | [C,C]3 z | %4
 F,F, [C,A,][C,C] | [C,C][C,C] [F,C][F,C] | [B,,B,][B,,B,] [C,A,][C,B,] | [F,A,]3 z || z4 | %9
 [C,G,][C,G,] [C,G,]2 | [C,E,][C,E,] [C,G,][C,A,] | [C,B,]2 !fermata![C,B,]2 | F,F, [C,A,][C,C] | %13
 [C,C][C,C] [F,C][F,C] | [B,,B,][B,,B,] [C,A,][C,B,] | [F,A,]2 [F,A,]2 |] %16
V:4
 x F, x2 | x F, x2 | x4 | x4 | F,F, x2 | x4 | x4 | x4 || x4 | x4 | x4 | x4 | F,F, x2 | x4 | x4 | %15
 x4 |] %16

